assets/icons/Outline/Logout.svg

<svg width="24" height="24" viewBox="0 0 24 24" fill="none" xmlns="http://www.w3.org/2000/svg">
<path fill-rule="evenodd" clip-rule="evenodd" d="M11.3193 22H6.43331C3.98931 22 2.00031 20.011 2.00031 17.565V6.436C2.00031 3.99 3.98931 2 6.43331 2H11.3083C13.7543 2 15.7443 3.99 15.7443 6.436V7.368C15.7443 7.782 15.4083 8.118 14.9943 8.118C14.5803 8.118 14.2443 7.782 14.2443 7.368V6.436C14.2443 4.816 12.9273 3.5 11.3083 3.5H6.43331C4.81631 3.5 3.50031 4.816 3.50031 6.436V17.565C3.50031 19.184 4.81631 20.5 6.43331 20.5H11.3193C12.9313 20.5 14.2443 19.188 14.2443 17.576V16.633C14.2443 16.219 14.5803 15.883 14.9943 15.883C15.4083 15.883 15.7443 16.219 15.7443 16.633V17.576C15.7443 20.016 13.7583 22 11.3193 22" fill="#AFB7C4"/>
<mask id="mask0_18_5657" style="mask-type:alpha" maskUnits="userSpaceOnUse" x="8" y="11" width="15" height="2">
<path fill-rule="evenodd" clip-rule="evenodd" d="M8.99611 11.25H22.537V12.75H8.99611V11.25Z" fill="white"/>
</mask>
<g mask="url(#mask0_18_5657)">
<path fill-rule="evenodd" clip-rule="evenodd" d="M21.7871 12.75H9.74611C9.33211 12.75 8.99611 12.414 8.99611 12C8.99611 11.586 9.33211 11.25 9.74611 11.25H21.7871C22.2011 11.25 22.5371 11.586 22.5371 12C22.5371 12.414 22.2011 12.75 21.7871 12.75" fill="#AFB7C4"/>
</g>
<mask id="mask1_18_5657" style="mask-type:alpha" maskUnits="userSpaceOnUse" x="18" y="8" width="5" height="8">
<path fill-rule="evenodd" clip-rule="evenodd" d="M18.1096 8.33527H22.537V15.666H18.1096V8.33527Z" fill="white"/>
</mask>
<g mask="url(#mask1_18_5657)">
<path fill-rule="evenodd" clip-rule="evenodd" d="M18.8594 15.666C18.6674 15.666 18.4744 15.593 18.3284 15.445C18.0364 15.151 18.0374 14.677 18.3304 14.385L20.7244 12L18.3304 9.61602C18.0374 9.32402 18.0354 8.85002 18.3284 8.55602C18.6204 8.26202 19.0944 8.26202 19.3884 8.55402L22.3164 11.469C22.4584 11.609 22.5374 11.801 22.5374 12C22.5374 12.199 22.4584 12.391 22.3164 12.531L19.3884 15.447C19.2424 15.593 19.0504 15.666 18.8594 15.666" fill="#AFB7C4"/>
</g>
</svg>

<?xml version="1.0" encoding="utf-8"?>
<!-- Generator: Adobe Illustrator 25.0.0, SVG Export Plug-In . SVG Version: 6.00 Build 0)  -->
<svg version="1.1" id="Layer_1" xmlns="http://www.w3.org/2000/svg" xmlns:xlink="http://www.w3.org/1999/xlink" x="0px" y="0px"
	 viewBox="0 0 24 24" style="enable-background:new 0 0 24 24;" xml:space="preserve">
<style type="text/css">
	.st0{fill-rule:evenodd;clip-rule:evenodd;fill:#AFB7C4;}
	.st1{fill-rule:evenodd;clip-rule:evenodd;fill:#FFFFFF;filter:url(#Adobe_OpacityMaskFilter);}
	.st2{mask:url(#mask0_344_8237_1_);}
	.st3{fill-rule:evenodd;clip-rule:evenodd;fill:#FFFFFF;filter:url(#Adobe_OpacityMaskFilter_1_);}
	.st4{mask:url(#mask1_344_8237_1_);}
</style>
<path class="st0" d="M11.3,22H6.4C4,22,2,20,2,17.6V6.4C2,4,4,2,6.4,2h4.9c2.4,0,4.4,2,4.4,4.4v0.9c0,0.4-0.3,0.8-0.8,0.8
	c-0.4,0-0.8-0.3-0.8-0.8V6.4c0-1.6-1.3-2.9-2.9-2.9H6.4c-1.6,0-2.9,1.3-2.9,2.9v11.1c0,1.6,1.3,2.9,2.9,2.9h4.9
	c1.6,0,2.9-1.3,2.9-2.9v-0.9c0-0.4,0.3-0.7,0.8-0.7c0.4,0,0.8,0.3,0.8,0.7v0.9C15.7,20,13.8,22,11.3,22z"/>
<defs>
	<filter id="Adobe_OpacityMaskFilter" filterUnits="userSpaceOnUse" x="9" y="11.2" width="13.5" height="1.5">
		<feColorMatrix  type="matrix" values="1 0 0 0 0  0 1 0 0 0  0 0 1 0 0  0 0 0 1 0"/>
	</filter>
</defs>
<mask maskUnits="userSpaceOnUse" x="9" y="11.2" width="13.5" height="1.5" id="mask0_344_8237_1_">
	<path class="st1" d="M9,11.2h13.5v1.5H9V11.2z"/>
</mask>
<g class="st2">
	<path class="st0" d="M21.8,12.8h-12C9.3,12.8,9,12.4,9,12s0.3-0.8,0.8-0.8h12c0.4,0,0.8,0.3,0.8,0.8S22.2,12.8,21.8,12.8z"/>
</g>
<defs>
	<filter id="Adobe_OpacityMaskFilter_1_" filterUnits="userSpaceOnUse" x="18.1" y="8.3" width="4.4" height="7.3">
		<feColorMatrix  type="matrix" values="1 0 0 0 0  0 1 0 0 0  0 0 1 0 0  0 0 0 1 0"/>
	</filter>
</defs>
<mask maskUnits="userSpaceOnUse" x="18.1" y="8.3" width="4.4" height="7.3" id="mask1_344_8237_1_">
	<path class="st3" d="M18.1,8.3h4.4v7.3h-4.4V8.3z"/>
</mask>
<g class="st4">
	<path class="st0" d="M18.9,15.7c-0.2,0-0.4-0.1-0.5-0.2c-0.3-0.3-0.3-0.8,0-1.1l2.4-2.4l-2.4-2.4c-0.3-0.3-0.3-0.8,0-1.1
		c0.3-0.3,0.8-0.3,1.1,0l2.9,2.9c0.1,0.1,0.2,0.3,0.2,0.5s-0.1,0.4-0.2,0.5l-2.9,2.9C19.2,15.6,19.1,15.7,18.9,15.7z"/>
</g>
</svg>
